neru-light-classic/32x32/apps/boinc.svg

<?xml version="1.0" encoding="UTF-8" standalone="no"?>
<svg
   xmlns:dc="http://purl.org/dc/elements/1.1/"
   xmlns:cc="http://creativecommons.org/ns#"
   xmlns:rdf="http://www.w3.org/1999/02/22-rdf-syntax-ns#"
   xmlns:svg="http://www.w3.org/2000/svg"
   xmlns="http://www.w3.org/2000/svg"
   xmlns:sodipodi="http://sodipodi.sourceforge.net/DTD/sodipodi-0.dtd"
   xmlns:inkscape="http://www.inkscape.org/namespaces/inkscape"
   height="32"
   width="32"
   version="1"
   id="svg16"
   sodipodi:docname="boinc.svg"
   inkscape:version="0.92.1 r">
  <metadata
     id="metadata22">
    <rdf:RDF>
      <cc:Work
         rdf:about="">
        <dc:format>image/svg+xml</dc:format>
        <dc:type
           rdf:resource="http://purl.org/dc/dcmitype/StillImage" />
      </cc:Work>
    </rdf:RDF>
  </metadata>
  <defs
     id="defs20" />
  <sodipodi:namedview
     pagecolor="#ffffff"
     bordercolor="#666666"
     borderopacity="1"
     objecttolerance="10"
     gridtolerance="10"
     guidetolerance="10"
     inkscape:pageopacity="0"
     inkscape:pageshadow="2"
     inkscape:window-width="1680"
     inkscape:window-height="963"
     id="namedview18"
     showgrid="false"
     inkscape:zoom="7.375"
     inkscape:cx="-8.6779661"
     inkscape:cy="16"
     inkscape:window-x="0"
     inkscape:window-y="0"
     inkscape:window-maximized="1"
     inkscape:current-layer="svg16" />
  <rect
     style="opacity:1;fill:#154277;fill-opacity:1;fill-rule:evenodd;stroke:none;stroke-width:1.03534329;stroke-linecap:round;stroke-linejoin:bevel;stroke-miterlimit:4;stroke-dasharray:none;stroke-dashoffset:0;stroke-opacity:1"
     id="rect4497-3"
     width="28.203388"
     height="28.203388"
     x="1.8983059"
     y="1.8983059"
     ry="5.575182" />
  <circle
     style="opacity:1;fill:#f5ca4a;fill-opacity:1"
     cx="16"
     cy="16"
     r="4"
     id="circle8" />
  <path
     style="opacity:1;fill:#5286fe;fill-opacity:1"
     d="M 24.257813,4.6972659 22.242189,8.1875003 20.712892,10.835938 A 7,7 0 0 1 23.000001,16 7,7 0 0 1 22.669923,18.119141 l 2.640625,1.52539 A 10,10 0 0 0 26.000001,16 10,10 0 0 0 24.357423,10.523438 L 26.525392,6.7695315 C 25.848394,5.9975113 25.088662,5.3041548 24.257813,4.6972659 Z M 6.769532,5.4746097 C 5.997512,6.1516077 5.304156,6.9113392 4.697267,7.7421878 l 3.490234,2.015625 2.648438,1.5292962 a 7,7 0 0 1 5.164062,-2.2871087 7,7 0 0 1 2.119141,0.3300781 l 1.52539,-2.640625 A 10,10 0 0 0 16.000001,6.0000003 10,10 0 0 0 10.523439,7.6425784 Z M 6.689452,12.355469 A 10,10 0 0 0 5.999999,16 10,10 0 0 0 7.642577,21.476562 l -2.167968,3.753907 c 0.676998,0.77202 1.436729,1.465376 2.267578,2.072265 L 9.757812,23.8125 11.287108,21.164062 A 7,7 0 0 1 8.999999,16 7,7 0 0 1 9.330077,13.880859 Z m 14.474609,8.357422 A 7,7 0 0 1 15.999999,23 7,7 0 0 1 13.880858,22.669922 l -1.52539,2.640625 A 10,10 0 0 0 15.999999,26 10,10 0 0 0 21.476561,24.357422 l 3.753907,2.167969 c 0.77202,-0.676998 1.465376,-1.43673 2.072265,-2.267579 l -3.490234,-2.015624 z"
     id="path12"
     inkscape:connector-curvature="0" />
</svg>

<svg xmlns="http://www.w3.org/2000/svg" height="32" width="32" version="1"><rect width="28.203" height="28.203" x="1.898" y="1.898" ry="5.575" fill="#154277" fill-rule="evenodd"/><circle cx="16" cy="16" r="4" fill="#f5ca4a"/><path d="M24.258 4.697l-2.016 3.49-1.53 2.649A7 7 0 0 1 23 16a7 7 0 0 1-.33 2.12l2.64 1.525A10 10 0 0 0 26 16a10 10 0 0 0-1.643-5.477l2.168-3.753a13.98 13.98 0 0 0-2.267-2.073zM6.77 5.475a13.98 13.98 0 0 0-2.073 2.267l3.49 2.016 2.649 1.53A7 7 0 0 1 16 9a7 7 0 0 1 2.12.33l1.525-2.64A10 10 0 0 0 16 6a10 10 0 0 0-5.477 1.643zm-.08 6.88A10 10 0 0 0 6 16a10 10 0 0 0 1.643 5.477L5.475 25.23a13.98 13.98 0 0 0 2.267 2.073l2.016-3.49 1.53-2.649A7 7 0 0 1 9 16a7 7 0 0 1 .33-2.12zm14.474 8.358A7 7 0 0 1 16 23a7 7 0 0 1-2.12-.33l-1.525 2.64A10 10 0 0 0 16 26a10 10 0 0 0 5.477-1.643l3.753 2.168a13.98 13.98 0 0 0 2.073-2.267l-3.49-2.016z" fill="#5286fe"/></svg>
